X:544
T: Taiyang chulai xiyangyang
N: C0260
O: China,Sichuan, Ostteil
S: II, 242]
N: Die Gattungsbzeichnung gilt den Fuellwoertern, die den Klang
N: des Gongs "Luo" imitieren.
N: Die Saengerin Lei Huilan ist Angehoerige der Zhuang Minderheit und
N: studiert an der Guangzhouer Musikhochschule.
N: aufgenommen am 5.5.87 +++ Komischer Grundton? +++
N: +++ AUCH AUF KASSETTE 1 = 46 CUT 2 (A-Seite) +++ MEHRMALS ! +++
N: Grundton liegt in der zweigestrichenen Oktave; Verzierung
N: Als Tonbeispiel vorhanden; Signatur: 00151, Cut Nr.: 17
N: Pinyin-Text der ersten Strophe vorhanden!
R: Shange, Luoer diao]
M: 2/4
L: 1/8
K: D
efed | e2fz |
defe- | edBz |
ABdB | eeB2 | A2Bz |
dBed- | dBe2- | e4

@@@ Tune index: 6545
